build/img/sprites/GearSix.svg

<svg width="54" height="54" viewBox="0 0 54 54" fill="none" xmlns="http://www.w3.org/2000/svg">
<path d="M50.1903 22.6146C50.1433 22.3769 50.0456 22.1522 49.9041 21.9557C49.7625 21.7591 49.5802 21.5954 49.3697 21.4755L43.0774 17.8896L43.0521 10.7978C43.0514 10.5536 42.9976 10.3125 42.8945 10.091C42.7915 9.8696 42.6416 9.67319 42.4552 9.51535C40.1727 7.58464 37.5442 6.10505 34.7096 5.15527C34.4863 5.07971 34.2497 5.05175 34.0151 5.07319C33.7804 5.09462 33.5528 5.16498 33.3469 5.27973L26.9998 8.82769L20.6464 5.2734C20.4404 5.158 20.2125 5.08712 19.9774 5.06532C19.7423 5.04351 19.5053 5.07129 19.2816 5.14683C16.4486 6.10271 13.823 7.58802 11.5444 9.52379C11.3583 9.68139 11.2085 9.87747 11.1055 10.0985C11.0024 10.3195 10.9485 10.5603 10.9474 10.8042L10.9158 17.9022L4.62354 21.4882C4.41303 21.608 4.23079 21.7718 4.0892 21.9683C3.94761 22.1649 3.85 22.3896 3.80299 22.6272C3.22713 25.521 3.22713 28.5 3.80299 31.3938C3.85 31.6314 3.94761 31.8561 4.0892 32.0527C4.23079 32.2492 4.41303 32.413 4.62354 32.5328L10.9158 36.1188L10.9411 43.2126C10.9419 43.4569 10.9957 43.698 11.0987 43.9194C11.2018 44.1409 11.3517 44.3373 11.5381 44.4951C13.8206 46.4258 16.449 47.9054 19.2837 48.8552C19.5069 48.9307 19.7435 48.9587 19.9782 48.9373C20.2129 48.9158 20.4405 48.8455 20.6464 48.7307L26.9998 45.1722L33.3532 48.7265C33.6047 48.8666 33.8881 48.9393 34.1759 48.9375C34.3602 48.9374 34.5433 48.9075 34.718 48.8489C37.5503 47.8934 40.1757 46.4096 42.4552 44.4761C42.6413 44.3185 42.791 44.1224 42.8941 43.9014C42.9972 43.6804 43.0511 43.4396 43.0521 43.1957L43.0838 36.0977L49.376 32.5118C49.5866 32.3919 49.7688 32.2281 49.9104 32.0316C50.052 31.8351 50.1496 31.6103 50.1966 31.3727C50.7692 28.4812 50.7671 25.5052 50.1903 22.6146ZM26.9998 35.4375C25.331 35.4375 23.6997 34.9426 22.3122 34.0155C20.9246 33.0884 19.8432 31.7706 19.2046 30.2289C18.5659 28.6871 18.3989 26.9906 18.7244 25.3539C19.05 23.7172 19.8536 22.2138 21.0336 21.0337C22.2136 19.8537 23.717 19.0501 25.3537 18.7246C26.9904 18.399 28.6869 18.5661 30.2287 19.2047C31.7704 19.8433 33.0882 20.9248 34.0153 22.3123C34.9424 23.6999 35.4373 25.3312 35.4373 27C35.4373 29.2377 34.5483 31.3838 32.966 32.9662C31.3837 34.5485 29.2376 35.4375 26.9998 35.4375Z" fill="white"/>
</svg>

<svg width="54" height="54" viewBox="0 0 54 54" fill="none" xmlns="http://www.w3.org/2000/svg"><path d="M50.19 22.615a1.688 1.688 0 00-.82-1.14l-6.293-3.585-.025-7.092a1.686 1.686 0 00-.597-1.283 23.607 23.607 0 00-7.745-4.36 1.688 1.688 0 00-1.363.125L27 8.828l-6.354-3.555a1.688 1.688 0 00-1.364-.126 23.607 23.607 0 00-7.738 4.377 1.687 1.687 0 00-.597 1.28l-.031 7.098-6.292 3.586a1.687 1.687 0 00-.821 1.14 22.459 22.459 0 000 8.766 1.688 1.688 0 00.82 1.139l6.293 3.586.025 7.094a1.689 1.689 0 00.597 1.282 23.606 23.606 0 007.746 4.36 1.689 1.689 0 001.362-.124L27 45.172l6.353 3.555a1.708 1.708 0 001.365.122 23.647 23.647 0 007.737-4.373 1.688 1.688 0 00.597-1.28l.032-7.098 6.292-3.586a1.688 1.688 0 00.82-1.14 22.46 22.46 0 00-.006-8.757zM27 35.438a8.437 8.437 0 110-16.875 8.437 8.437 0 010 16.875z" fill="#fff"/></svg>
